X:3694
T:Lisnathara
O:england
R:reel
C:Ed Reavy
M:2/2
L:1/8
N:Ed says it was a legendary place in Ulster
N:where musicians gathered once a year
N:"to revel and make grand music.
N:"This reel is the fulfillment of a young boy's dream.
K:Bb
GA|BdBF DGGA|(3Bcd BF D=EFA|G^FGA BABc|dg^fa gfdc|
=Bcd=e fdeg|^fd=Bd cAFA|(3=Bcd BF D=EFE|1=FGAc =BGGA:|
2=FGAc =BGGg||(3bba gf gfdc|Bcde =fdcd|gabg ^fgaf|
dggf gfga|(3bag (3agf gfdc|_BABd cAFA|(3=Bcd B=F DCB,C|
1=FGAc BGGg|2=FGAc BGGA||


